X:5135
T:Remember Me
A:Northumberland
C:R.Whinham
M:4/4
O:England
R:Hornpipe
Z:Richard Robinson 
%%TUNEURL: http://www.leeds.ac.uk/music/Info/RRTuneBk/gettune/00000cb8.html
%%ID:00000cb8
K:G
Bc|\
dgdB GdBG | FcAF GdBG | FAFD EFGA | Bc^cd edB=c |\
dgdB GdBG | FcAF GdBG | FAcA FDEF | G2 G2 G2 ::\
GA |\
Bd^cd =cdAd | BdGd FdGd | Bd^cd =cdAd | Gd^cd edB=c |\
dgdB GdBG | FcAF GdBG | FAcA FDEF | G2g2 g2 :|
